X:1
T:Draw Me to Thee
T:Draw Me to Thee
T:Edmund Simon Lorenz
T:Martha Ann Woodbridge Cook, 1903
T:Public Domain Courtesy of the Cyber Hymnal™
C:Edmund Simon Lorenz
Z:Public Domain
Z:Courtesy of the Cyber Hymnal™
%%score ( 1 2 ) ( 3 4 )
L:1/8
Q:1/4=95
M:6/8
K:Eb
V:1 treble 
V:2 treble 
V:3 bass 
V:4 bass 
V:1
 E | E2 E (E[DF])[EG] | [EA]2 [EA] [EA]2 [EA] | [DF]2 [DF] ([DF][EG])[FA] | [GB]2 [GB] [GB]2 [GB] | %5
w: 1.~Lord,|weak and im- * po-|tent I stand, As|fet- tered by * an|un- seen hand; Break|
w: 2.~In|vain I strug- * gle|to be free; I|would, but can * not,|fly to Thee; Ope|
w: 3.~Oh,|bring me near- * er,|near- er still, That|Thine own peace * my|soul may fill, And|
w: 4.~Here,|Lord, I would * for-|ev- er bide, And|ne- ver wan- * der|from Thy side; Be-|
 [Ge]2 [Ge] ([Ge][Bd])[Ac] | [Bd]2 [Ac] ([Ac][GB])[FA] | [EG]2 [EG] (BA)[DF] | E3- E2 z || %9
w: Thou the strong * and|sub- tle band, * And|draw me close * to|Thee. *|
w: Thou the pri- * son|door for me, * And|draw me close * to|Thee. *|
w: I may rest * in|Thy sweet will; * Lord,|draw me close * to|Thee. *|
w: neath Thy wing * do|Thou me hide, * And|draw me close * to|Thee. *|
"^Refrain" [B,G]2 [B,G] ([EG][DF])[CE] | [DF]3 [B,D]2 B, | [FA]2 [FA] ([FA][EG])[DF] | %12
w: |||
w: Draw me close * to|Thee, Sav- ior,|Draw me close * to|
w: |||
w: |||
 ([EG]3 [GB]2) [GB] | [Ge]2 [Ge] ([Ge][Bd])[Ac] | [Bd]2 [Ac] ([Ac][GB])[FA] | [EG]2 [EG] (BA)[DF] | %16
w: ||||
w: Thee; * Be-|neath Thy wing * do|Thou me hide, * And|draw me close * to|
w: ||||
w: ||||
 E3- E2 |] %17
w: |
w: Thee. *|
w: |
w: |
V:2
 E | E2 E E x2 | x6 | x6 | x6 | x6 | x6 | x3 D2 x | E3- E2 x || x6 | x5 B, | x6 | x6 | x6 | x6 | %15
 x3 D2 x | E3- E2 |] %17
V:3
 [E,G,] | [E,G,]2 [E,G,] (G,A,)[E,B,] | [A,,C]2 [A,,C] [A,,C]2 [A,,C] | %3
w: ~|~ ~ ~ * ~|~ ~ ~ ~|
 [B,,B,]2 [B,,B,] (A,G,)[B,,F,] | E,2 [E,G,] [E,B,]2 [E,E] | [E,B,]2 [E,B,] [E,B,]2 [E,E] | %6
w: ~ ~ ~ * ~|~ ~ ~ ~|~ ~ ~ ~|
 [A,E]2 [A,E] [A,E]2 [A,,E] | [B,,B,]2 [B,,B,] [B,,F,]2 [B,,A,] | [E,G,]3- [E,G,]2 z || z6 | %10
w: ~ ~ ~ ~|~ ~ ~ ~|~ *||
 [B,,B,][B,,B,][B,,B,] [B,,F,]2 [B,,F,] | z6 | [E,B,]2 [E,B,] [E,E]2 [E,E] | %13
w: close to Thee, Sav- ior,||close to Thee; *|
 [E,B,]2 [E,B,] [E,B,]2 [E,E] | [A,E]2 [A,E] [A,E]2 [A,,E] | [B,,B,]2 [B,,B,] [B,,F,]2 [B,,A,] | %16
w: |||
 [E,G,]3- [E,G,]2 |] %17
w: |
V:4
 x | x3 E,2 x | x6 | x3 B,,2 x | E,2 x4 | x6 | x6 | x6 | x6 || x6 | x6 | x6 | x6 | x6 | x6 | x6 | %16
 x5 |] %17

